assets/images/AWS/Analytics/Kinesis/Analytics_Kinesis_EnabledApp.svg

<?xml version="1.0" encoding="UTF-8" standalone="no"?>
<!-- Generator: Adobe Illustrator 19.1.0, SVG Export Plug-In . SVG Version: 6.00 Build 0)  -->

<svg
   xmlns:dc="http://purl.org/dc/elements/1.1/"
   xmlns:cc="http://creativecommons.org/ns#"
   xmlns:rdf="http://www.w3.org/1999/02/22-rdf-syntax-ns#"
   xmlns:svg="http://www.w3.org/2000/svg"
   xmlns="http://www.w3.org/2000/svg"
   xmlns:sodipodi="http://sodipodi.sourceforge.net/DTD/sodipodi-0.dtd"
   xmlns:inkscape="http://www.inkscape.org/namespaces/inkscape"
   version="1.1"
   id="Layer_1"
   x="0px"
   y="0px"
   viewBox="0 0 100 100"
   style="enable-background:new 0 0 100 100;"
   xml:space="preserve"
   inkscape:version="0.91 r13725"
   sodipodi:docname="Analytics_Kinesis_EnabledApp.svg"><metadata
     id="metadata30"><rdf:RDF><cc:Work
         rdf:about=""><dc:format>image/svg+xml</dc:format><dc:type
           rdf:resource="http://purl.org/dc/dcmitype/StillImage" /></cc:Work></rdf:RDF></metadata><defs
     id="defs28" /><sodipodi:namedview
     pagecolor="#ffffff"
     bordercolor="#666666"
     borderopacity="1"
     objecttolerance="10"
     gridtolerance="10"
     guidetolerance="10"
     inkscape:pageopacity="0"
     inkscape:pageshadow="2"
     inkscape:window-width="1280"
     inkscape:window-height="985"
     id="namedview26"
     showgrid="false"
     inkscape:zoom="7.4579687"
     inkscape:cx="50.26817"
     inkscape:cy="50"
     inkscape:window-x="0"
     inkscape:window-y="0"
     inkscape:window-maximized="1"
     inkscape:current-layer="Layer_1" /><style
     type="text/css"
     id="style3">
	.st0{fill:#9D5025;}
	.st1{fill:#F58536;}
	.st2{fill:#FFFFFF;}
	.st3{font-family:'HelveticaNeueLTStd-Roman';}
	.st4{font-size:18px;}
</style><g
     id="Layer_1_2_"
     transform="matrix(1.6556291,0,0,1.6556291,-36.009932,-32.781455)"><g
       id="g6"><path
         class="st0"
         d="m 76.1,53.9 0,-29.3 c 0,-2.8 -5.1,-2 -7.8,-2 L 28.2,19.8 c -2.8,0 -5.1,2.3 -5.1,5.1 l 0,46.7 c 0,2.8 2.3,5.2 5.1,5.2 0,0 25.2,-9.9 25.2,-13.5 0,-3.5 8.3,-16.5 22.7,-9.4 z"
         id="path8"
         inkscape:connector-curvature="0"
         style="fill:#9d5025" /><path
         class="st0"
         d="m 80.9,66 c 0,9.6 -5.5,14.2 -12.2,14.2 -6.7,0 -12.2,-4.3 -12.2,-13.4 0,-6.7 5.5,-9.9 12.2,-9.9 6.8,0 12.2,2.4 12.2,9.1 z"
         id="path10"
         inkscape:connector-curvature="0"
         style="fill:#9d5025" /><g
         id="g12"><path
           class="st0"
           d="m 27.9,73.8 0,3 c -2.6,0 -4.8,-2.1 -4.8,-4.7 l 0,-3 c 0.1,2.6 2.2,4.7 4.8,4.7"
           id="path14"
           inkscape:connector-curvature="0"
           style="fill:#9d5025" /></g><path
         class="st0"
         d="m 27.9,73.8 0,3 c -2.6,0 -4.8,-2.1 -4.8,-4.7 l 0,-3 c 0.1,2.6 2.2,4.7 4.8,4.7 z"
         id="path16"
         inkscape:connector-curvature="0"
         style="fill:#9d5025" /><circle
         class="st1"
         cx="68.699997"
         cy="66"
         r="12.2"
         id="circle18"
         style="fill:#f58536" /><text
         transform="translate(63.4524,72.89)"
         class="st2 st3 st4"
         id="text20"
         style="font-size:18px;font-family:HelveticaNeueLTStd-Roman;fill:#ffffff">K</text>
<path
         class="st0"
         d="M 55,73.5 26.6,73 l 1.4,3.7 29.2,0 c -0.9,-0.9 -1.7,-2 -2.2,-3.2 z"
         id="path22"
         inkscape:connector-curvature="0"
         style="fill:#9d5025" /><path
         class="st1"
         d="m 53.2,66 c 0,-9.2 7.3,-16.6 16.4,-16.6 2.4,0 4.5,0.5 6.5,1.4 l 0,-26.2 c 0,-2.6 -1.8,-4.8 -4.5,-4.8 l -43.7,0 C 25.3,19.8 23,22 23,24.6 L 23,69 c 0,2.6 2.2,4.8 4.9,4.8 l 27.2,0 c -1.2,-2 -1.9,-5 -1.9,-7.8 z"
         id="path24"
         inkscape:connector-curvature="0"
         style="fill:#f58536" /></g></g></svg>

<?xml version="1.0" encoding="utf-8"?>
<!-- Generator: Adobe Illustrator 19.1.0, SVG Export Plug-In . SVG Version: 6.00 Build 0)  -->
<svg version="1.1" id="Layer_1" xmlns="http://www.w3.org/2000/svg" xmlns:xlink="http://www.w3.org/1999/xlink" x="0px" y="0px"
	 viewBox="0 0 100 100" style="enable-background:new 0 0 100 100;" xml:space="preserve">
<style type="text/css">
	.st0{fill:#9D5025;}
	.st1{fill:#F58536;}
	.st2{fill:#FFFFFF;}
	.st3{font-family:'HelveticaNeueLTStd-Roman';}
	.st4{font-size:18px;}
</style>
<g id="Layer_1_2_">
	<g>
		<path class="st0" d="M76.1,53.9V24.6c0-2.8-5.1-2-7.8-2l-40.1-2.8c-2.8,0-5.1,2.3-5.1,5.1v46.7c0,2.8,2.3,5.2,5.1,5.2
			c0,0,25.2-9.9,25.2-13.5C53.4,59.8,61.7,46.8,76.1,53.9z"/>
		<path class="st0" d="M80.9,66c0,9.6-5.5,14.2-12.2,14.2c-6.7,0-12.2-4.3-12.2-13.4c0-6.7,5.5-9.9,12.2-9.9
			C75.5,56.9,80.9,59.3,80.9,66z"/>
		<g>
			<path class="st0" d="M27.9,73.8v3c-2.6,0-4.8-2.1-4.8-4.7v-3C23.2,71.7,25.3,73.8,27.9,73.8"/>
		</g>
		<path class="st0" d="M27.9,73.8v3c-2.6,0-4.8-2.1-4.8-4.7v-3C23.2,71.7,25.3,73.8,27.9,73.8z"/>
		<circle class="st1" cx="68.7" cy="66" r="12.2"/>
		<text transform="matrix(1 0 0 1 63.4524 72.89)" class="st2 st3 st4">K</text>
		<path class="st0" d="M55,73.5l-28.4-0.5l1.4,3.7h29.2C56.3,75.8,55.5,74.7,55,73.5z"/>
		<path class="st1" d="M53.2,66c0-9.2,7.3-16.6,16.4-16.6c2.4,0,4.5,0.5,6.5,1.4V24.6c0-2.6-1.8-4.8-4.5-4.8H27.9
			c-2.6,0-4.9,2.2-4.9,4.8V69c0,2.6,2.2,4.8,4.9,4.8h27.2C53.9,71.8,53.2,68.8,53.2,66z"/>
	</g>
</g>
</svg>
